X: 882
T: The Active Old Man
N:"Collected by J.O'Neill"
B:O'Neill's 882
Z:Transcribed by Dan G. Petersen, dangp@post6.tele.dk
M:6/8
L:1/8
K:G
GAG G>BG|GAG AFA|G>GG G>GG|GcB AFA|
GAG GBG|GAG AFA|G2g gfe|dcB AFA|
G2d dAc|BGB AFA|G2d dAc|BcB AFA|
G2d dAc|BGB AFA|G2g gfe|dcB AFA|
G2g gdc|BGB AFA|G2g gdc|BcB ecA|
G2g gdc|BGB AFA|G2g gfe|dcB AFA|
def gdf|efg G2g|efg gd=f|efg A2g|
geg =fdf|ece dBd|dcB gfe|dcB AFA|]


